front/src/img/Rule4.svg

<svg width="68" height="67" viewBox="0 0 68 67" fill="none" xmlns="http://www.w3.org/2000/svg">
<path d="M43.9384 14.8934L44.7173 16.9983L46.8221 17.7772L44.7173 18.556L43.9384 20.6609L43.1595 18.556L41.0547 17.7772L43.1595 16.9983L43.9384 14.8934Z" fill="#FBD566"/>
<path d="M47.9028 14.8934L48.2922 15.9459L49.3447 16.3353L48.2922 16.7247L47.9028 17.7772L47.5134 16.7247L46.4609 16.3353L47.5134 15.9459L47.9028 14.8934Z" fill="#FBD566"/>
<path d="M46.6425 20.6609L46.9832 21.5818L47.9041 21.9225L46.9832 22.2633L46.6425 23.1841L46.3017 22.2633L45.3809 21.9225L46.3017 21.5818L46.6425 20.6609Z" fill="#FBD566"/>
<rect x="19.637" y="26.9979" width="29.14" height="6.79116" rx="1.55" stroke="#FBD566" stroke-width="1.86"/>
<rect x="22.5218" y="34.2071" width="23.3726" height="16.5237" rx="1.55" stroke="#FBD566" stroke-width="1.86"/>
<mask id="path-6-inside-1_245_1012" fill="white">
<rect x="30.9629" y="26.0679" width="6.48837" height="25.593" rx="1.24"/>
</mask>
<rect x="30.9629" y="26.0679" width="6.48837" height="25.593" rx="1.24" stroke="#FBD566" stroke-width="3.72" mask="url(#path-6-inside-1_245_1012)"/>
<path d="M27.2054 22.9009C27.2054 21.3811 28.4375 20.149 29.9573 20.149H30.2405C31.9168 20.149 33.2756 21.5079 33.2756 23.1841V26.2192H30.5237C28.6911 26.2192 27.2054 24.7336 27.2054 22.9009Z" stroke="#FBD566" stroke-width="1.86"/>
<path d="M40.488 22.9009C40.488 21.3811 39.2559 20.149 37.7361 20.149H37.4529C35.7766 20.149 34.4177 21.5079 34.4177 23.1841V26.2192H37.1696C39.0023 26.2192 40.488 24.7336 40.488 22.9009Z" stroke="#FBD566" stroke-width="1.86"/>
<circle cx="34.0003" cy="33.0801" r="31.8267" stroke="#FBD566" stroke-width="2.48"/>
</svg>

<svg xmlns="http://www.w3.org/2000/svg" width="68" height="67" fill="none"><path fill="#FBD566" d="m43.938 14.893.78 2.105 2.104.78-2.105.778-.779 2.105-.779-2.105-2.104-.779 2.105-.779.778-2.105ZM47.903 14.893l.39 1.053 1.052.39-1.053.389-.39 1.052-.389-1.052-1.052-.39 1.052-.39.39-1.052ZM46.642 20.66l.341.922.921.34-.92.341-.342.921-.34-.92-.921-.341.92-.341.341-.921Z"/><rect width="29.14" height="6.791" x="19.637" y="26.998" stroke="#FBD566" stroke-width="1.86" rx="1.55"/><rect width="23.373" height="16.524" x="22.522" y="34.207" stroke="#FBD566" stroke-width="1.86" rx="1.55"/><mask id="a" fill="#fff"><rect width="6.488" height="25.593" x="30.963" y="26.068" rx="1.24"/></mask><rect width="6.488" height="25.593" x="30.963" y="26.068" stroke="#FBD566" stroke-width="3.72" mask="url(#a)" rx="1.24"/><path stroke="#FBD566" stroke-width="1.86" d="M27.205 22.9a2.752 2.752 0 0 1 2.752-2.751h.284a3.035 3.035 0 0 1 3.035 3.035v3.035h-2.752a3.318 3.318 0 0 1-3.319-3.318ZM40.488 22.9a2.752 2.752 0 0 0-2.752-2.751h-.283a3.035 3.035 0 0 0-3.035 3.035v3.035h2.752a3.318 3.318 0 0 0 3.318-3.318Z"/><circle cx="34" cy="33.08" r="31.827" stroke="#FBD566" stroke-width="2.48"/></svg>
